!!!SOCIAL_FUNCTION: war songs
!!!PDT:	1929
!!!LING_GROUP: Caddoan
!!!LANG: Non-Tone
!!!REG: Oklahoma
!!!COM: Anon.
!!!OTL: The Thunder Spoke Quietly
!!!ODT: <1920//
!!!MPN: Tsastawinahiigat [She led a phony into the ceremony, Effie Blain]
!!!MLC: Pawnee, Oklahoma, United States of America
!! Song was recorded either 1919 or 1920.
!!!AGN: monody
!!!AMT: irregular
!!!RWG: Transcribed pitches, durations, and meters are only approximate.
!! Drum not recorded
**kern	**silbe	**words	**words
*ICvox	*LPawnee	*LPawnee	*LEnglish
*Ifemale	*	*	*
*clefF4	*	*	*
*k[b-e-a-d-]	*	*	*
*M3/4	*M3/4	*M3/4	*M3/4
*MM63	*MM63	*MM63	*MM63
*[A,A]	*[A,A]	*[A,A]	*[A,A]
*>A	*>A	*>A	*>A
=!|:1	=!|:1	=!|:1	=!|:1
8E-	A-	Aheru	Dear
8E-	-he-	.	.
8.E-	-ru	.	.
16E-	i	i	it
8.C	ra-	rau	that is
16AA-	-u	.	.
=2	=2	=2	=2
8C	a-	aheru	dear
8C	-he-	.	.
8.C	-ru	.	.
16C	i	i	it
8AA-	ra-	rau	that is
8EE-	-u	.	.
=3	=3	=3	=3
(8.AA-	a	a	and
16EE-)	|	.	.
8EE-	ti	ti	this
8EE-	ra	ra	have
4EE-	ha-	harahe	good
=4	=4	=4	=4
2.EE-	-he	.	.
=5	=5	=5	=5
2EE-	a	?	?
4EE-	h?	?	?
*M2/4	*M2/4	*M2/4	*M2/4
=6	=6	=6	=6
8EE-	pa-	pahitu	quietly
8BB-	-hi-	.	.
8C	-tu	.	.
16.C	ra	ra	have
32C	ti	ti	him
=7	=7	=7	=7
(8.C	wa-	waku	saying
16BB-)	|	.	.
4AA-	-ku	.	.
*M3/4	*M3/4	*M3/4	*M3/4
=8	=8	=8	=8
8EE-	ti	ti	this
8EE-	ra	ra	have
8EE-	ki-	kiriru	thundering
8CC	-ri-	.	.
4CC;	-ru	.	.
=9	=9	=9	=9
(8.AA-	a	a	and
16EE-)	|	.	.
8EE-	ti	ti	this
8EE-	ra	ra	have
4EE-	ha-	harahe	good
=10	=10	=10	=10
2EE-	-he	.	.
4EE-	e	.	.
=:|!	=:|!	=:|!	=:|!
*-	*-	*-	*-
!!!HAO:    A certain young man was afraid of the storm and wept when he
!!!HAO: heard the thunder, but in a dream the thunder spoke to him slowly
!!!HAO: and said, "Do not be afraid, your father is coming."  He heard
!!!HAO: the thunder sing the following song, learned it, and sang it
!!!HAO: when he went to war.  His name was Eagle and he lived to be one
!!!HAO: of the old warriors of the tribe.
!!!HTX: [no free translation]
!!!CNT: Pawnee
!!!TXO: Pawnee
!!!OCY: United States
!!!OCL: Frances Densmore
!!!YOR: Frances Densmore, "Pawnee Music"
!!!YOR: Bulletin 93, page 61, No. 33
!!!PPR: Smithsonian Institution, Bureau of American Ethnology
!!!PPR: Government Printing Office
!!!PDT: 1926
!!!PPP: Washington, DC, United States of America
!!!YEC: Electronic Copyright 2000 David Huron
!!!YER: September 2000
!!!YEN: United States of America
!!!ENC: David Huron
!!!RDT: September 3, 2000
!!!EEV: Release 1.0
!!!AIN: tom, vox
